X: 1
T: Headache, The
M: 2/4
L: 1/8
R: polka
K: Emin
|: D2 | E2 B2 B2 AG | F2 D2 D2 EF | G2 E2 E2 FG | FEDC B,2 D2 |
E2 B2 B2 AG | F2 D2 D2 EF | G2 FE DE F2 | E2 ED E2 :|
|: EF | G2 GF GABc | d2 AG F2 EF | G2 E2 E2 FG |
FEDC B,2 EF | G2 GF GABc | deAG F2 EF | G2 FE DE F2 | E2 ED E2 :|
